**kern	**silbe	**kern	**silbe
*ICvox	*	*ICvox	*
*b:	*	*b:	*
*M4/4	*	*M4/4	*
*clefG2	*	*clefG2	*
r;	.	r;	.
=1	=1	=1	=1
1r	.	1r	.
=2	=2	=2	=2
1r	.	1r	.
=3	=3	=3	=3
1r	.	1r	.
=4	=4	=4	=4
1r	.	1r	.
=5	=5	=5	=5
1r	.	1r	.
=6	=6	=6	=6
1r	.	1r	.
=7	=7	=7	=7
1r	.	1r	.
=8	=8	=8	=8
1r	.	1r	.
=9	=9	=9	=9
1r	.	1r	.
=10	=10	=10	=10
*B:	*	*B:	*
1r	.	1r	.
=11	=11	=11	=11
1r	.	1r	.
=12	=12	=12	=12
1r	.	1r	.
=13	=13	=13	=13
1r	.	1r	.
=14	=14	=14	=14
1r	.	1r	.
=15	=15	=15	=15
1r	.	1r	.
=16	=16	=16	=16
1r	.	1r	.
=17	=17	=17	=17
2..r	.	1r	.
16B	Ev-	.	.
16B	-er	.	.
=18	=18	=18	=18
8f#	since	1r	.
8f#	I	.	.
8f#	was	.	.
16f#	a	.	.
8.f#	young	.	.
8f#	boy	.	.
8r	.	.	.
8f#	I've	.	.
=19	=19	=19	=19
8f#	played	1r	.
8e	the	.	.
8d#	sil-	.	.
16c#	-ver	.	.
[16B	ball	.	.
4B]	_	.	.
8r	.	.	.
8e	From	.	.
=20	=20	=20	=20
8e	So-	1r	.
8e	-ho	.	.
8e	down	.	.
16e	to	.	.
8e	Brigh-	.	.
8.e	-ton	.	.
8r	.	.	.
8e	I	.	.
=21	=21	=21	=21
8e	must	1r	.
8d	have	.	.
8c#	played	.	.
16d	them	.	.
16e	all	.	.
16d	_	.	.
8.e	_	.	.
16r	.	.	.
16d	But	.	.
8d	I	.	.
=22	=22	=22	=22
8d	ain't	1r	.
8d	seen	.	.
16d	noth-	.	.
8d	-ing	.	.
8.d	like	.	.
8d	him	.	.
8r	.	.	.
8d	in	.	.
=23	=23	=23	=23
16d	an-	1r	.
16d	-y	.	.
16c	a-	.	.
8.B	-muse-	.	.
8c	-ment	.	.
16d	hall	.	.
16c	_	.	.
8d	_	.	.
8r	.	.	.
8d	That	.	.
=24	=24	=24	=24
8.c#	deaf	1r	.
[16c#	dumb	.	.
16c#]	_	.	.
16B	and	.	.
8c#	blind	.	.
8A	_	.	.
8A#	kid	.	.
4r	.	.	.
=25	=25	=25	=25
4d	Sure	4b	Sure
8.B	plays	8.a	plays
16B	a	16a	a
4A	mean	4f#	mean
4E	pin-	4A	pin-
=26	=26	=26	=26
2F#	-ball	2B	-ball
2r	.	2r	.
=27	=27	=27	=27
1r	.	1r	.
=28	=28	=28	=28
1r	.	1r	.
=29	=29	=29	=29
2..r	.	1r	.
8B	He	.	.
=30	=30	=30	=30
4f#	stands	1r	.
8f#	like	.	.
16f#	a	.	.
8f#	sta-	.	.
8.f#	-tue	.	.
16r	.	.	.
16f#	Be-	.	.
8f#	-comes	.	.
=31	=31	=31	=31
8f#	part	1r	.
8e	of	.	.
16d#	the	.	.
8c#	ma-	.	.
[16B	-chine	.	.
4B]	_	.	.
4r	.	.	.
=32	=32	=32	=32
16e	Feel-	1r	.
8e	-ing	.	.
8.e	all	.	.
16e	the	.	.
[16e	bum-	.	.
8e]	_	.	.
8e	-pers	.	.
4r	.	.	.
=33	=33	=33	=33
8e	Al-	1r	.
8d	-ways	.	.
16c#	plays	.	.
8d	it	.	.
16e	clean	.	.
16d	_	.	.
8.e	_	.	.
4r	.	.	.
=34	=34	=34	=34
8d	Plays	1r	.
8d	by	.	.
8d	in-	.	.
16d	-tu-	.	.
[16d	-it-	.	.
16d]	_	.	.
8.d	-ion	.	.
8r	.	.	.
8d	The	.	.
=35	=35	=35	=35
8d	di-	1r	.
8c	-git	.	.
8B	coun-	.	.
8c	-ters	.	.
16d	fall	.	.
16c	_	.	.
8d	_	.	.
8r	.	.	.
8d	The	.	.
=36	=36	=36	=36
8.c#	deaf	1r	.
8c#	dumb	.	.
16B	and	.	.
8c#	blind	.	.
8A	_	.	.
8A#	kid	.	.
4r	.	.	.
=37	=37	=37	=37
4d	Sure	4b	Sure
8.B	plays	8.a	plays
16B	a	16a	a
4A	mean	4f#	mean
4E	pin-	4A	pin-
=38	=38	=38	=38
2F#	-ball	2B	-ball
2r	.	2r	.
=39	=39	=39	=39
1r	.	1r	.
=40	=40	=40	=40
1r	.	1r	.
=41	=41	=41	=41
1r	.	2r	.
.	.	4r	.
.	.	8e g#	He's
.	.	8e g#	a
=42	=42	=42	=42
4B	pin-	4e g#	pin-
4c#	-ball	4e g#	-ball
8d#	wiz-	8d# f#	wiz-
8d#	-ard	8d# f#	-ard
8G#	there	8r	.
[8B	has	[8e [g#	has
=43	=43	=43	=43
8B]	_	8e] g#]	_
8B	to	8e g#	to
8c#	be	8e g#	be
8c#	a	8e g#	a
8d#	twist	8d# f#	twist
8r	.	8r	.
8r	.	4r	.
8G#	A	.	.
=44	=44	=44	=44
4B	pin-	4e g#	pin-
4c#	-ball	4e g#	-ball
8d#	wiz-	8d# f#	wiz-
8d#	-ard's	8d# f#	-ard's
4B	got	4f#	got
=45	=45	=45	=45
*D:	*	*D:	*
4B	such	4d g	such
4B	a	4d g	a
4B	su-	4d g	su-
4B	-btle	4d g	-btle
=46	=46	=46	=46
8.A	wrist	8.d f#	wrist
16G	_	16B e	_
4F#	_	4A d	_
2r	.	2r	.
=47	=47	=47	=47
1r	.	1r	.
=48	=48	=48	=48
8cc	How	1r	.
8b	do	.	.
8a	you	.	.
4g	think	.	.
4a	he	.	.
8f	does	.	.
=49	=49	=49	=49
8e	_	8r	.
4d	it?	4a	I
8r	.	4g	don't
2r	.	.	.
.	.	[4.d	know
=50	=50	=50	=50
8g	What	4d]	_
4g	makes	.	.
.	.	2.r	.
4f	him	.	.
4.d	so	.	.
=51	=51	=51	=51
8B	good?	1r	.
4.A	_	.	.
2r	.	.	.
=52	=52	=52	=52
*B:	*	*B:	*
8f#	Ain't	1r	.
8f#	got	.	.
8f#	no	.	.
8f#	dis-	.	.
8f#	-trac-	.	.
8f#	-tions	.	.
8r	.	.	.
8f#	Can't	.	.
=53	=53	=53	=53
8f#	hear	1r	.
8e	no	.	.
16d#	bu-	.	.
16d#	-zzers	.	.
8c#	and	.	.
4B	bells	.	.
8r	.	.	.
8e	Don't	.	.
=54	=54	=54	=54
8e	see	1r	.
8e	no	.	.
8e	lights	.	.
16e	a	.	.
8.e	flash-	.	.
8e	-in'	.	.
4r	.	.	.
=55	=55	=55	=55
8e	Plays	1r	.
8d	be	.	.
8c#	sense	.	.
16d	of	.	.
16e	smell	.	.
16d	_	.	.
8.e	_	.	.
4r	.	.	.
=56	=56	=56	=56
8d	Al-	1r	.
8d	-ways	.	.
8d	gets	.	.
16d	the	.	.
[16d	re-	.	.
8d]	_	.	.
8d	-play	.	.
4r	.	.	.
=57	=57	=57	=57
16d	Ne-	1r	.
8c	-ver	.	.
8.B	_	.	.
8c	seen	.	.
16d	fall	.	.
16c	_	.	.
8d	_	.	.
8r	.	.	.
8d	That	.	.
=58	=58	=58	=58
8.c#	deaf	1r	.
8c#	dumb	.	.
16B	and	.	.
8c#	blind	.	.
8A	_	.	.
8A#	kid	.	.
4r	.	.	.
=59	=59	=59	=59
4d	Sure	4b	Sure
8.B	plays	8.a	plays
16B	a	16a	a
4A	mean	4f#	mean
4E	pin-	4A	pin-
=60	=60	=60	=60
2F#	-ball	2B	-ball
2r	.	2r	.
=61	=61	=61	=61
1r	.	1r	.
=62	=62	=62	=62
1r	.	1r	.
=63	=63	=63	=63
2..r	.	1r	.
8G#	I	.	.
=64	=64	=64	=64
4B	thought	4e g#	thought
4c#	I	4e g#	I
4d#	was	4d# f#	was
8r	.	4r	.
8G#	the	.	.
=65	=65	=65	=65
8B	Ba-	8e g#	Ba-
8B	-lly	8e g#	-lly
8c#	ta-	8e g#	ta-
8c#	-ble	8e g#	-ble
4d#	king	4d# f#	king
8r	.	4r	.
8G#	But	.	.
=66	=66	=66	=66
4B	I	4e g#	I
4c#	just	4e g#	just
8d#	hand-	8d# f#	hand-
8d#	-ed	8d# f#	-ed
4B	my	4f#	my
=67	=67	=67	=67
*D:	*	*D:	*
4B	pin-	4d g	pin-
4B	-ball	4d g	-ball
4B	crown	4d g	crown
4B	to	4d g	to
=68	=68	=68	=68
8.A	him	8.d f#	him
16G	_	16B e	_
4F#	_	4A d	_
2r	.	2r	.
=69	=69	=69	=69
1r	.	1r	.
=70	=70	=70	=70
1r	.	1r	.
=71	=71	=71	=71
1r	.	1r	.
=72	=72	=72	=72
1r	.	1r	.
=73	=73	=73	=73
1r	.	1r	.
=74	=74	=74	=74
1r	.	1r	.
=75	=75	=75	=75
1r	.	1r	.
=76	=76	=76	=76
1r	.	1r	.
=77	=77	=77	=77
2..r	.	1r	.
16d	Ev-	.	.
16d	-en	.	.
=78	=78	=78	=78
8a	on	1r	.
8a	my	.	.
8a	favor-	.	.
8a	-ite	.	.
8a	ta-	.	.
8a	-ble	.	.
4r	.	.	.
=79	=79	=79	=79
8a	He	1r	.
8g	can	.	.
8f#	beat	.	.
8e	my	.	.
4d	best	.	.
8r	.	.	.
8d	Di-	.	.
=80	=80	=80	=80
8g	-scip-	1r	.
8g	-les	.	.
16g	lead	.	.
8g	him	.	.
8.g	in	.	.
8r	.	.	.
8r	.	.	.
8g	and	.	.
=81	=81	=81	=81
8g	he	1r	.
8f	just	.	.
8e	does	.	.
16f	the	.	.
16g	rest	.	.
16f	_	.	.
8.g	_	.	.
16r	.	.	.
16B-	He's	.	.
8B-	got	.	.
=82	=82	=82	=82
8f	cra-	1r	.
8f	-zy	.	.
16f	fli-	.	.
8f	-pper	.	.
8f	fing-	.	.
8.f	-ers	.	.
4r	.	.	.
=83	=83	=83	=83
16f	Ne-	1r	.
8e-	-ver	.	.
8d	seen	.	.
8.e-	him	.	.
16f	fall	.	.
16e-	_	.	.
8f	_	.	.
8r	.	.	.
8e	That	.	.
=84	=84	=84	=84
8.e	deaf	1r	.
8e	dumb	.	.
16d	and	.	.
8e	blind	.	.
8c	_	.	.
8c#	kid	.	.
4r	.	.	.
=85	=85	=85	=85
4f	Sure	4dd	Sure
8.d	plays	8.cc	plays
16d	a	16cc	a
4c	mean	4a	mean
4G	pin-	4c	pin-
=86	=86	=86	=86
2A	-ball	2d	-ball
2r	.	2r	.
=87	=87	=87	=87
1r	.	1r	.
=88	=88	=88	=88
1r	.	1r	.
=89	=89	=89	=89
1r	.	1r	.
=90	=90	=90	=90
1r	.	1r	.
=91	=91	=91	=91
1r	.	1r	.
=92	=92	=92	=92
1r	.	1r	.
r;	.	r;	.
r;	.	r;	.
*-	*-	*-	*-
!!!ENC: Nathaniel Condit-Schultz